X: 8
T: Calling Wood
C: by Adam Broome and Nicholas Williams
R: jig
S: Fiddle Hell Online 2021-10-13 Portland Collection Jam handout
B: PC3 p.45
Z: 2022 John Chambers <jc:trillian.mit.edu>
M: C|
L: 1/8
K: F
%%continueall
"^A"|:"F"FGA cAG | A2c- c3 |\
[1,3  "Bb/F"FBc dcB | "F"A2c- c3 :|\
[2,4  "Dm"cdf gfd | "C"c2A- A3 \
"^B"::"Dm"f3- fgf | "C"edc cde |
    | "Bb"d6 | zFG ABc \
  |[1 "Gm"d3- dcB | "F"cAF FGA | "C"G3 zEF | GAB cde \
 :|[2 "Gm"d3- dcB | "F"cAF FED | "C"C6- | C6 |]


